src/assets/svg/instagram.svg

<svg width="66" height="66" viewBox="0 0 66 66" fill="none" xmlns="http://www.w3.org/2000/svg">
<circle cx="33" cy="33" r="33" fill="#2BAA9B"/>
<path d="M42.0751 14.8501H23.9251C18.9131 14.8501 14.8501 18.9131 14.8501 23.9251V42.0751C14.8501 47.0871 18.9131 51.1501 23.9251 51.1501H42.0751C47.0871 51.1501 51.1501 47.0871 51.1501 42.0751V23.9251C51.1501 18.9131 47.0871 14.8501 42.0751 14.8501Z" fill="white"/>
<path d="M40.2603 31.8567C40.4843 33.3672 40.2263 34.9099 39.523 36.2654C38.8197 37.6208 37.7069 38.72 36.3429 39.4065C34.9789 40.0931 33.4331 40.332 31.9255 40.0894C30.4178 39.8468 29.025 39.135 27.9453 38.0552C26.8655 36.9754 26.1537 35.5827 25.9111 34.075C25.6685 32.5674 25.9074 31.0216 26.594 29.6576C27.2805 28.2936 28.3797 27.1808 29.7351 26.4775C31.0906 25.7742 32.6333 25.5162 34.1438 25.7402C35.6846 25.9686 37.111 26.6866 38.2125 27.788C39.3139 28.8895 40.0318 30.3159 40.2603 31.8567Z" stroke="#2BAA9B" stroke-width="4" stroke-linecap="round" stroke-linejoin="round"/>
<path d="M42.9829 23.0176H43.0011" stroke="#2BAA9B" stroke-width="4" stroke-linecap="round" stroke-linejoin="round"/>
</svg>

<svg xmlns="http://www.w3.org/2000/svg" width="66" height="66" fill="none"><circle cx="33" cy="33" r="33" fill="#2baa9b"/><path d="M42.075 14.85h-18.15c-5.012 0-9.075 4.063-9.075 9.075v18.15c0 5.012 4.063 9.075 9.075 9.075h18.15c5.012 0 9.075-4.063 9.075-9.075v-18.15c0-5.012-4.063-9.075-9.075-9.075z" fill="#fff"/><g stroke="#2baa9b" stroke-width="4" stroke-linejoin="round"><path d="M40.26 31.857a7.26 7.26 0 0 1-3.917 7.55 7.26 7.26 0 0 1-8.398-1.351 7.26 7.26 0 0 1-1.351-8.398 7.26 7.26 0 0 1 7.55-3.917 7.26 7.26 0 0 1 6.117 6.116z"/><path d="M42.983 23.018H43" stroke-linecap="round"/></g></svg>
